X:42
T:Sutors of Selkirk,The. HSJJ.042
M:3/4
L:1/8
Q:3/4=60
S:HSJ Jackson,Wyresdale,Lancs.1823
R:.Air
O:England
A:Lancashire
H:1823
Z:vmp.Chris Partington.
K:G
G2|:”_(time sig. more appropriate at 9/4)”Bcd2e2|\
d2B2g2|edcBAG|Bcd2e2|d2B2g2|~f4A2|!
Bcd2e2|d2B2g2|edcBAG|c3de2|d2B2g2|~f4A2:|!
|:”^brisk”g2G2B2|g2agfe|d2cBAG|g2G2B2|g2agfe|f4A2|!
g2G2B2|g2agfe|dgdBAG|c3de2|d2B2g2f4A2:|

